X:612
T:Reel 612
M:4/4
K:Gmaj
L:1/8
f|g2bg dBAG|g2bg ac'ba|g2bg dBGB|cABG AGGd|g2bg dBGB|c2eg fdef|g2bg fgaf|bgac' bgg|f|g2bg dgbg|gbab c'baf|g2bg dgbg|bd'ac' bgga| (3bag  (3abf gfed|cecd ABAc|Bdgb afge|dBcA BGG|
